-- Midi
-- http://blog.tidalcycles.org/superdirt-midi/

-- OSC
-- http://blog.tidalcycles.org/tidalcycles-and-processing/
-- https://github.com/yaxu/p5dirt
d1 silence

d1 $ jux (# accelerate "-0.1") $ s "supermandolin*8" # midinote "[80!6 78]/8"
  # sustain "1 0.25 2 1"
