-- setup
tidal <- startTidal superdirtTarget (defaultConfig {cCtrlAddr = "0.0.0.0", cCtrlPort = 6020})

hush

p "d1"  $ ccv "20" # ccn 30 # s "midi"

setcps(130/4/60)

p "dubstep" silence

p "dubstep" $ stack [
  n "[[1 ~ ~ 1 ~ ~ ~ ~]/2 [1 ~ ~ ~ ~ ~ ~ 1 ~ ~ 1? ~ 1? ~ ~ 1 ~]]" # ccn 10 # s "midi"
  , n "[[~ ~ 1 ~]*2]/2" # ccn 11 # s "midi" -- step 2
  , n "[[~ ~ 1 ~]*2]/2" # ccn 12 # s "midi" -- step 2
  , n "[[1?*4 [~ 1*3]]*2]/2" # ccn 13 # s "midi" -- step 3
  , n "[[~ ~ ~ 1]*8]/2" # ccn 14 # s "midi" -- step 3
  , n "[[~*13 1? ~*2]*2]/2" # ccn 15 # s "midi" -- step 3
  , n "[[~*10 1? ~*5]*2]/2" # ccn 16 # s "midi"-- step 3
  , n "[[1*4 ~*2 1*2]]/2" # ccn 17 # s "midi" -- step 4
]  -- # gain ((cF 1 "93")  * 2)
